src/images/header-icon-sent.svg

<svg width="20" height="20" viewBox="0 0 20 20" fill="none" xmlns="http://www.w3.org/2000/svg">
<path fill-rule="evenodd" clip-rule="evenodd" d="M8.29622 3.9139C6.54732 3.9139 5.12956 5.33166 5.12956 7.08057C5.12956 8.82947 6.54732 10.2472 8.29622 10.2472C10.0451 10.2472 11.4629 8.82947 11.4629 7.08057C11.4629 5.33166 10.0451 3.9139 8.29622 3.9139ZM3.54622 7.08057C3.54622 4.45721 5.67287 2.33057 8.29622 2.33057C10.9196 2.33057 13.0462 4.45721 13.0462 7.08057C13.0462 9.70392 10.9196 11.8306 8.29622 11.8306C5.67287 11.8306 3.54622 9.70392 3.54622 7.08057ZM15.4212 9.45557C15.8584 9.45557 16.2129 9.81001 16.2129 10.2472V11.0389H17.0046C17.4418 11.0389 17.7962 11.3933 17.7962 11.8306C17.7962 12.2678 17.4418 12.6222 17.0046 12.6222H16.2129V13.4139C16.2129 13.8511 15.8584 14.2056 15.4212 14.2056C14.984 14.2056 14.6296 13.8511 14.6296 13.4139V12.6222H13.8379C13.4007 12.6222 13.0462 12.2678 13.0462 11.8306C13.0462 11.3933 13.4007 11.0389 13.8379 11.0389H14.6296V10.2472C14.6296 9.81001 14.984 9.45557 15.4212 9.45557ZM5.52539 14.9972C4.52832 14.9972 3.54622 15.958 3.54622 17.3722C3.54622 17.8095 3.19178 18.1639 2.75456 18.1639C2.31733 18.1639 1.96289 17.8095 1.96289 17.3722C1.96289 15.2887 3.46189 13.4139 5.52539 13.4139H11.0671C13.1306 13.4139 14.6296 15.2887 14.6296 17.3722C14.6296 17.8095 14.2751 18.1639 13.8379 18.1639C13.4007 18.1639 13.0462 17.8095 13.0462 17.3722C13.0462 15.958 12.0641 14.9972 11.0671 14.9972H5.52539Z" fill="#37AEE2"/>
</svg>

<svg xmlns="http://www.w3.org/2000/svg" width="20" height="20" fill="none"><path fill="#37AEE2" fill-rule="evenodd" d="M8.296 3.914a3.167 3.167 0 1 0 0 6.333 3.167 3.167 0 0 0 0-6.333ZM3.546 7.08a4.75 4.75 0 1 1 9.5 0 4.75 4.75 0 0 1-9.5 0Zm11.875 2.375c.437 0 .792.354.792.791v.792h.792a.792.792 0 0 1 0 1.583h-.792v.792a.792.792 0 0 1-1.583 0v-.792h-.792a.792.792 0 1 1 0-1.583h.792v-.792c0-.437.354-.791.791-.791Zm-9.896 5.541c-.997 0-1.979.961-1.979 2.375a.792.792 0 1 1-1.583 0c0-2.083 1.499-3.958 3.562-3.958h5.542c2.064 0 3.563 1.875 3.563 3.958a.792.792 0 1 1-1.584 0c0-1.414-.982-2.375-1.979-2.375H5.525Z" clip-rule="evenodd"/></svg>
